X:7736
T:Jack the Horse Coursers Hornpipe
B:Walsh
M:4/4
L:1/8
N:
K:G
G2  e2| d2 cB ABcd| A2 ED GDGB| ADFA GDGB| ADFA G2 e2|d2 cB A2 BG|\
F2 ED c2 BA| B2 Ag F3 G| G4::d2 g2| f2 ed e2 fd|^c2 BA dAdf| eAeg fAdf|\
eAef B2 g2| f2 ed ^c3 B| B4 B2 e2| d2 cB A2 BG| F2 ED BGBd| AFAc BGBd|\
AFAc G2 e2|d2 cB A2 BG| F2 ED c2 BA| B2 AG F3 G| G4:|
